X: 1
T:Dan Collins' Father's Jig
M:6/8
K:D
|dAA BAB|def a2f|aba fge|dBB gfe|
dAA BAB|def a2f|aba faf|edc d3:|
|:faa fab|afe fef|~a3 fge|dBB gfe|
dAA BAB|def a2f|aba faf|edc d3:|
